usr/share/icons/biglinux-icons-material/16/actions/path-intersection.svg

<svg xmlns="http://www.w3.org/2000/svg" viewBox="0 0 16 16">
  <defs id="defs3051">
    <style type="text/css" id="current-color-scheme">
      .ColorScheme-Text {
        color:#363636;
      }
      .ColorScheme-Highlight {
        color:#3daee9;
      }
      </style>
  </defs>
  <path 
        style="fill:currentColor;fill-opacity:1;stroke:none"
        d="M 9 2.03125 A 4.5 4.5 0 0 0 7.6992188 2.3789062 L 8.203125 3.2519531 A 3.5 3.5 0 0 1 9 3.0390625 L 9 2.03125 z M 10 2.0332031 L 10 3.0410156 A 3.5 3.5 0 0 1 10.796875 3.2519531 L 11.298828 2.3828125 A 4.5 4.5 0 0 0 10 2.0332031 z M 6.8339844 2.8808594 A 4.5 4.5 0 0 0 5.8808594 3.8339844 L 6.7539062 4.3359375 A 3.5 3.5 0 0 1 7.3339844 3.75 L 6.8339844 2.8808594 z M 12.166016 2.8808594 L 11.664062 3.7539062 A 3.5 3.5 0 0 1 12.25 4.3339844 L 13.119141 3.8339844 A 4.5 4.5 0 0 0 12.166016 2.8808594 z M 13.621094 4.6992188 L 12.748047 5.203125 A 3.5 3.5 0 0 1 12.960938 6 L 13.96875 6 A 4.5 4.5 0 0 0 13.621094 4.6992188 z M 5.3828125 4.7011719 A 4.5 4.5 0 0 0 5.0332031 6 L 5 6 L 5 7 L 5.0292969 7 A 4.5 4.5 0 0 0 9 10.966797 L 9 11 L 10 11 L 10 10.96875 A 4.5 4.5 0 0 0 11.300781 10.621094 L 10.796875 9.7480469 A 3.5 3.5 0 0 1 10 9.9589844 L 10 6 L 6.0390625 6 A 3.5 3.5 0 0 1 6.2519531 5.203125 L 5.3828125 4.7011719 z M 2 6 L 2 8 L 3 8 L 3 7 L 4 7 L 4 6 L 3 6 L 2 6 z M 6.0390625 7 L 9 7 L 9 9.9589844 A 3.5 3.5 0 0 1 6.0390625 7 z M 12.958984 7 A 3.5 3.5 0 0 1 12.748047 7.796875 L 13.617188 8.2988281 A 4.5 4.5 0 0 0 13.966797 7 L 12.958984 7 z M 12.246094 8.6640625 A 3.5 3.5 0 0 1 11.666016 9.25 L 12.166016 10.119141 A 4.5 4.5 0 0 0 13.119141 9.1660156 L 12.246094 8.6640625 z M 2 9 L 2 10 L 3 10 L 3 9 L 2 9 z M 2 11 L 2 12 L 3 12 L 3 11 L 2 11 z M 9 12 L 9 13 L 8 13 L 8 14 L 10 14 L 10 12 L 9 12 z M 2 13 L 2 14 L 3 14 L 3 13 L 2 13 z M 4 13 L 4 14 L 5 14 L 5 13 L 4 13 z M 6 13 L 6 14 L 7 14 L 7 13 L 6 13 z "
        class="ColorScheme-Text"
        />
  <path
        style="fill:currentColor;fill-opacity:1;stroke:none"
        d="M 9,7 6.041,7.021 C 6.273,8.545 7.474,9.738 9,9.959 Z"
        class="ColorScheme-Highlight"
      />
</svg>

<svg xmlns="http://www.w3.org/2000/svg" viewBox="0 0 16 16"><path d="M9 2.031a4.5 4.5 0 0 0-1.3.348l.503.873A3.5 3.5 0 0 1 9 3.039V2.031zm1 .002v1.008a3.5 3.5 0 0 1 .797.211l.502-.87A4.5 4.5 0 0 0 10 2.034zm-3.166.848a4.5 4.5 0 0 0-.953.953l.873.502a3.5 3.5 0 0 1 .58-.586l-.5-.87zm5.332 0-.502.873a3.5 3.5 0 0 1 .586.58l.87-.5a4.5 4.5 0 0 0-.954-.953zm1.455 1.818-.873.504a3.5 3.5 0 0 1 .213.797h1.008a4.5 4.5 0 0 0-.348-1.3zm-8.238.002A4.5 4.5 0 0 0 5.033 6H5v1h.03A4.5 4.5 0 0 0 9 10.967V11h1v-.031a4.5 4.5 0 0 0 1.3-.348l-.503-.873a3.5 3.5 0 0 1-.797.211V6H6.04a3.5 3.5 0 0 1 .212-.797l-.87-.502zM2 6v2h1V7h1V6H2zm4.04 1H9v2.959A3.5 3.5 0 0 1 6.04 7zm6.919 0a3.5 3.5 0 0 1-.211.797l.87.502A4.5 4.5 0 0 0 13.966 7h-1.008zm-.713 1.664a3.5 3.5 0 0 1-.58.586l.5.87a4.5 4.5 0 0 0 .953-.954l-.873-.502zM2 9v1h1V9H2zm0 2v1h1v-1H2zm7 1v1H8v1h2v-2H9zm-7 1v1h1v-1H2zm2 0v1h1v-1H4zm2 0v1h1v-1H6z" style="fill:currentColor;fill-opacity:1;stroke:none;color:#dedede"/><path d="m9 7-2.959.021A3.5 3.5 0 0 0 9 9.959Z" style="fill:currentColor;fill-opacity:1;stroke:none;color:#3daee9"/></svg>
